X:1
T:Spirit of God, Who Dwells within My Heart
T:Text: George Croly, 1867, alt. Tune: Fredrick C. Atkinson, 1870
T:10 10 10 10 MORECAMBE www.hymnary.org/text/spirit_of_god_descend_upon_my_heart
T:Spirit of God, Who Dwells within My Heart
T:This hymn is in the public domain.  You may freely use this score for personal and congregational worship.  If you reproduce the score, please credit Hymnary.org as the source. 
T:This hymn is in the public domain.  You may freely use this score for personal and congregational worship.  If you reproduce the score, please credit Hymnary.org as the source. 
T:This hymn is in the public domain.  You may freely use this score for personal and congregational worship.  If you reproduce the score, please credit Hymnary.org as the source. 
Z:This hymn is in the public domain.  You may freely use this score for personal and congregational worship.  If you reproduce the score, please credit Hymnary.org as the source.
%%score ( 1 2 ) ( 3 4 )
L:1/8
M:4/4
K:Bb
V:1 treble nm="SOPRANO ALTO" snm="S. A."
V:2 treble 
V:3 bass nm="TENOR BASS" snm="T. B."
V:4 bass 
V:1
"^Capo 3:""^1""^2""^3""^4""^5""^Bb(G)" D4 D2 D2 |"^F7(D7)" E4"^Bb(G)" D4 | %2
w: Spir- it of|God, who|
w: I ask no|dream, no|
w: Did you not|bid us|
w: Teach me to|feel that|
w: Teach me to|love you|
"^Eb(C)" G2 F2"^Cm7(Am7)" E2 E2 |"^Bb(G)" D8 |"^Gm(Em)" B4"^A(F)" A2 G2 |"^Dm(Bm)" F4"^G7(E7)" G4 | %6
w: dwells with- in my|heart,|wean it from|sin, through|
w: proph- et ec- sta-|sies,|no sud- den|rend- ing|
w: love you, God and|King,|love you with|all our|
w: you are al- ways|nigh;|teach me the|strug- gles|
w: as your an- gels|love,|one ho- ly|pas- sion|
"^F/C(D/A)" A2 F2"^C7(A7)" G2 G2 |"^F(D)" F8 | F4 F2 F2 |"^F7(D7)" A4"^Eb(C)" G4 | %10
w: all its puls- es|move.|Stoop to my|weak- ness,|
w: of the veil of|clay,|no an- gel|vis- i-|
w: heart and strength and|mind?|I see the|cross— there|
w: of the soul to|bear,|to check the|ris- ing|
w: fill- ing all my|frame:|the full- ness|of the|
"^F7(D7)" F2 G2 A2 B2 | c8 |1"^Bb(G)" d4 c2 B2 |"^Eb(C)" A2 G2 F2 B2 |"^Bb(G)" F4"^F7(D7)" F4 | %15
w: might- y as you|are,|and make me|love you as I|ought to|
w: tant, no o- pening|skies;|but take the|dim- ness of my|soul a-|
w: teach my heart to|cling.|O let me|seek you and O|let me|
w: doubt, the reb- el|sigh;|teach me the|pa- tience of un-|ceas- ing|
w: heaven- de- scend- ed|Dove;|my heart an|al- tar, and your|love the|
"^Bb(G)" F8 |] %16
w: love.|
w: way.|
w: find!|
w: prayer.|
w: flame.|
V:2
 B,4 B,2 B,2 | C4 B,4 | B,2 B,2 B,2 A,2 | B,8 | D4 ^C2 =E2 | (D2 F2) F4 | F2 C2 D2 =E2 | F8 | %8
 C4 C2 C2 | E4 E4 | E2 E2 E2 E2 | E8 |1 D4 E2 F2 | F2 E2 D2 E2 | D4 E4 | D8 |] %16
V:3
 F,4 F,2 F,2 | F,4 F,4 | E,2 F,2 G,2 F,2 | F,8 | (G,2 F,2) =E,2 A,2 | A,4 =B,4 | C2 A,2 B,2 B,2 | %7
 A,8 | A,4 A,2 A,2 | C4 B,4 | A,2 B,2 C2 G,2 | A,8 |1 (B,2 G,2) A,2 B,2 | B,2 B,2 B,2 B,2 | %14
 B,4 A,4 | B,8 |] %16
V:4
 B,,4 B,,2 B,,2 | A,,4 B,,4 | E,2 D,2 C,2 F,,2 | B,,8 | G,,4 A,,2 ^C,2 | D,4 D,4 | %6
 C,2 C,2 C,2 C,2 | F,8 | F,4 F,2 F,2 | F,4 F,4 | F,2 F,2 F,2 F,2 | F,8 |1 B,,4 C,2 D,2 | %13
 E,2 E,2 F,2 G,2 | F,4 F,4 | B,,8 |] %16

